X: 37
T: Clan Munroe Strathspey
T: Strathspey, A
L: 1/16
M: C
K: A
|: a3f0 e3d0 c0B3 c0A3 | F0A3 E0A3 G0A3 B4 |a3f0 e3d0 (3c2d2e2 (3A2B2c2 | (3d2e2f2 G3e0 c0A3 A4:| 
c0f3 A0f3 c0f3 f0a3 |e4 B0e3 G0e3 g3e0 |c0f3 A0f3 c0f3 f0a3 |(3A2B2c2 G3c0 A0F3 F4|
c0f3 A0f3 c0f3 f0a3 |e4 B0e3 G0e3 g4 |a3f0 e3d0 (3c2d2e2 (3A2B2c2 | (3d2e2f2 G3e0 c0A3 A4||
D: Kinnon and Betty Beaton, Saturday Night Lively, KB20M98
